X: 9220
T: Dan Coakley's
R: polka
M: 2/4
K: Gmajor
|:A/|B2 AB/A/|GB d2|ed GA|Be ed|
Bd/B/ AB/A/|GB d/^c/d|ed ef|g2 g3/2:|
|:d/|ed Bd|ed B>d|ed GG/A/|Be ed|
B2 AB/A/|GB d/^c/d|ed d/e/f|g2- g3/2:|

